src/next/cmd/sc_pickthrough.svg

<svg height="16" width="16" xmlns="http://www.w3.org/2000/svg" xmlns:xlink="http://www.w3.org/1999/xlink"><linearGradient id="a" gradientUnits="userSpaceOnUse" x1="12.319189" x2="12.319189" y1="-20.732288" y2="-2.100539"><stop offset="0" stop-color="#06f"/><stop offset="1" stop-color="#80b3ff"/></linearGradient><g transform="matrix(.125 0 0 .125 0 .5)"><rect fill="#618fd2" fill-opacity=".091954" height="96" rx=".167734" ry=".18705" width="96" x="16" y="16"/><path d="m56.129654-111.83981h7.870346v8h-7.870346z" fill="#7193c6" transform="rotate(90)"/><use height="128" transform="translate(0 96)" width="128" xlink:href="#b"/><use height="128" transform="translate(104 96)" width="128" xlink:href="#b"/><rect id="b" fill="url(#a)" height="24" rx=".309585" ry=".373932" transform="scale(1 -1)" width="24" y="-24"/><g fill="#7193c6"><g transform="rotate(90)"><path d="m72.129654-111.83981h7.870346v8h-7.870346z"/><path d="m88.129654-112h7.870346v8h-7.870346z"/><path d="m104.12965-88h7.87035v8h-7.87035z"/><path d="m104.12965-72h7.87035v8h-7.87035z"/><path d="m104.12965-56h7.87035v8h-7.87035z"/><path d="m104.12965-40h7.87035v8h-7.87035z"/><path d="m16-88h7.870346v8h-7.870346z"/><path d="m16-72h7.870346v8h-7.870346z"/><path d="m16-56h7.870346v8h-7.870346z"/><path d="m16-40h7.870346v8h-7.870346z"/></g><g transform="matrix(-1 0 0 -1 135.99999 16)"><path d="m112.12965-80h7.87035v8h-7.87035z"/><path d="m112.12965-64h7.87035v8h-7.87035z"/><path d="m112.12965-48h7.87035v8h-7.87035z"/><path d="m112.12965-32h7.87035v8h-7.87035z"/></g><g transform="rotate(90)"><path d="m24.129654-24h7.870346v8h-7.870346z"/><path d="m24-112h7.870346v8h-7.870346z"/><path d="m40-112h7.870346v8h-7.870346z"/><path d="m16.129654-104h7.870346v8h-7.870346z"/><path d="m104.12965-104h7.87035v8h-7.87035z"/></g></g><use height="128" transform="translate(104)" width="128" xlink:href="#b"/><path d="m5.7558594 3.453125a.73364018.73364018 0 0 0 -.6757813.4472656l-1.7910156 4.2246094a.73364018.73364018 0 0 0 0 .00195c-.2475404.586566-.4584774.957577-.4609375.9687531a.73364018.73364018 0 0 0 -.6640625.7285157v.1640624a.73364018.73364018 0 0 0 .734375.7343748h1.703125a.73364018.73364018 0 0 0 .734375-.7343748v-.1640624a.73364018.73364018 0 0 0 -.4648437-.6816407l.1113281-.2792969h1.2695312l.1191407.2832032a.73364018.73364018 0 0 0 -.4550782.6777344v.1640624a.73364018.73364018 0 0 0 .734375.7343748h1.4492188.7441406 2.128906c.4563 0 .877118-.05478 1.261719-.185547a.73364018.73364018 0 0 0 .01172-.0059c.365583-.13161.691732-.315835.943359-.5976562.19446-.2171312.354569-.456441.457031-.7265626.09195-.2423983.144532-.5028401.144532-.7675781 0-.3134278-.06996-.6254951-.210938-.9003906-.111549-.2224462-.241863-.424672-.427734-.5996094-.01377-.012964-.03283-.016909-.04687-.029297.07562-.1074227.159454-.2106132.216797-.3300781a.73364018.73364018 0 0 0 .0039-.011719c.118092-.2558778.171875-.5355484.171875-.8144532 0-.6758989-.335477-1.3474485-.898438-1.7128906-.562961-.365442-1.259054-.484375-2.089843-.484375h-2.4101566a.73364018.73364018 0 0 0 -.734375.734375v.1640625a.73364018.73364018 0 0 0 .6875.7324219c.068674.00436.08785.020048.1367187.033203.0001064.00471.00195.00291.00195.00781v2.296875l-1.5917937-3.6327685a.73364018.73364018 0 0 0 -.671875-.4394531zm4.7812496 1.9257812c.229677.026474.450042.062923.509766.109375.07753.060304.103516.080097.103516.3007813 0 .1775953-.01422.1738867-.06445.2148437-.04595.037168-.17144.099609-.464844.099609h-.08399zm0 2.5625c.109586.0074.236608.02069.402344.054688.162596.033353.245479.076907.255859.083984.0078.00533.03739.028796.08008.1113281a.73364018.73364018 0 0 0 .01563.025391c.01635.02862.04101.092797.04101.2304687 0 .1536829-.02788.2311927-.04687.265625a.73364018.73364018 0 0 0 -.0098.015625c-.02233.043167-.02547.044359-.06055.0625-.09896.046015-.20766.081258-.330078.1035156-.08697.015812-.22343.020511-.347657.027344z" fill="#80b3ff" stroke-width=".215104" transform="matrix(8 0 0 8 0 -4)"/><g stroke-width="1.720833"><path d="m70.752807 74.591703v1.307833h-17.552497v-1.307833q2.753333-.06883 3.785833-.550667 1.0325-.481833 1.0325-1.789666 0-1.652-1.307833-4.611832l-2.822166-6.607999h-18.034331l-3.166332 8.053498q-.550667 1.4455-.550667 2.6845 0 2.822166 4.680666 2.822166v1.307833h-13.628997v-1.307833q2.546832-.137667 3.923499-1.927333 1.4455-1.8585 4.611832-9.361332l14.317331-33.79716h1.376666l17.139497 39.097326q1.652 3.785833 2.753333 4.818333 1.101333 1.032499 3.441666 1.170166zm-33.728327-16.38233h15.900497l-7.984665-18.929163z"/><path d="m104.44537 63.509538q0 2.065-.75717 4.061166-.75717 1.996167-2.54683 3.992333-1.720836 1.927333-5.162502 3.166333-3.441666 1.170166-8.191166 1.170166h-22.990329v-1.307833q4.267666-.137667 5.437833-1.239 1.170166-1.101333 1.170166-4.955999v-30.561994q0-3.785833-1.170166-4.818333-1.101333-1.101333-5.437833-1.376666v-1.307833h19.27333q18.034327 0 18.034327 11.701664 0 2.2715-.826 4.061166-.826 1.720833-1.72083 2.6845-.826.894833-2.615666 1.720833-1.789666.826-2.2715.963666-.481833.06883-1.996166.481834 1.583167.412999 2.340333.619499.826.2065 2.891 1.170167 2.133829.963666 3.303999 2.065 1.17017 1.101333 2.20267 3.166332 1.0325 1.996167 1.0325 4.542999zm-21.6825 9.843165q3.097499 0 5.368999-.413 2.2715-.413 4.267666-1.376666 1.996166-1.0325 3.028666-3.028666 1.101333-1.996166 1.101333-4.955999 0-2.822166-1.101333-4.749499-1.0325-1.996167-2.546833-3.028666-1.514333-1.0325-4.198832-1.583167-2.6845-.550666-4.7495-.6195-2.064999-.137666-5.506665-.137666v17.070663q0 1.652.894833 2.2715.894833.550666 3.441666.550666zm-4.336499-22.646162h6.539165q4.818333 0 7.433999-2.133833 2.684499-2.202666 2.684499-6.263832 0-4.611833-3.097499-7.020999-3.097499-2.409166-9.017165-2.409166h-3.028666q-1.514333 0-1.514333 2.064999z"/></g></g></svg>

<?xml version="1.0" encoding="UTF-8" standalone="no"?>
<svg
   xmlns:dc="http://purl.org/dc/elements/1.1/"
   xmlns:cc="http://creativecommons.org/ns#"
   xmlns:rdf="http://www.w3.org/1999/02/22-rdf-syntax-ns#"
   xmlns:svg="http://www.w3.org/2000/svg"
   xmlns="http://www.w3.org/2000/svg"
   xmlns:xlink="http://www.w3.org/1999/xlink"
   xmlns:sodipodi="http://sodipodi.sourceforge.net/DTD/sodipodi-0.dtd"
   xmlns:inkscape="http://www.inkscape.org/namespaces/inkscape"
   height="16"
   width="16"
   version="1.1"
   id="svg64"
   sodipodi:docname="sc_pickthrough.svg"
   inkscape:version="0.92.4 (unknown)"
   inkscape:export-filename="/home/rizmut/Dokumen/Rizmut/Github/libreoffice-style-karasa-jaga/build/next/cmd/sc_pickthrough.png"
   inkscape:export-xdpi="96"
   inkscape:export-ydpi="96">
  <metadata
     id="metadata70">
    <rdf:RDF>
      <cc:Work
         rdf:about="">
        <dc:format>image/svg+xml</dc:format>
        <dc:type
           rdf:resource="http://purl.org/dc/dcmitype/StillImage" />
        <dc:title></dc:title>
      </cc:Work>
    </rdf:RDF>
  </metadata>
  <defs
     id="defs68">
    <linearGradient
       inkscape:collect="always"
       xlink:href="#a"
       id="linearGradient921"
       gradientUnits="userSpaceOnUse"
       x1="12.319189"
       y1="-20.732288"
       x2="12.319189"
       y2="-2.100539" />
  </defs>
  <sodipodi:namedview
     pagecolor="#ffffff"
     bordercolor="#666666"
     borderopacity="1"
     objecttolerance="10"
     gridtolerance="10"
     guidetolerance="10"
     inkscape:pageopacity="0"
     inkscape:pageshadow="2"
     inkscape:window-width="1366"
     inkscape:window-height="714"
     id="namedview66"
     showgrid="true"
     inkscape:zoom="29.5"
     inkscape:cx="7.9207461"
     inkscape:cy="7.3008192"
     inkscape:window-x="0"
     inkscape:window-y="28"
     inkscape:window-maximized="1"
     inkscape:current-layer="g911">
    <inkscape:grid
       type="xygrid"
       id="grid880" />
  </sodipodi:namedview>
  <linearGradient
     id="a"
     gradientUnits="userSpaceOnUse"
     x1="12.319189"
     x2="12.319189"
     y1="-20.732288"
     y2="-2.100539">
    <stop
       offset="0"
       stop-color="#06f"
       id="stop2" />
    <stop
       offset="1"
       stop-color="#80b3ff"
       id="stop4" />
  </linearGradient>
  <g
     id="g911"
     transform="matrix(0.125,0,0,0.125,0,0.5)">
    <rect
       id="rect7"
       y="16"
       x="16"
       width="96"
       ry="0.18705"
       rx="0.167734"
       height="96"
       style="fill:#618fd2;fill-opacity:0.09195401" />
    <path
       id="path9"
       transform="rotate(90)"
       d="M 56.129654,-111.83981 H 64 v 8 h -7.870346 z"
       inkscape:connector-curvature="0"
       style="fill:#7193c6" />
    <use
       id="use11"
       xlink:href="#b"
       width="128"
       transform="translate(0,96)"
       height="128"
       x="0"
       y="0" />
    <use
       id="use13"
       xlink:href="#b"
       width="128"
       transform="translate(104,96)"
       height="128"
       x="0"
       y="0" />
    <rect
       y="-24"
       width="24"
       transform="scale(1,-1)"
       ry="0.373932"
       rx="0.30958501"
       height="24"
       id="b"
       style="fill:url(#linearGradient921)"
       x="0" />
    <g
       id="g54"
       style="fill:#7193c6">
      <path
         id="path16"
         transform="rotate(90)"
         d="M 72.129654,-111.83981 H 80 v 8 h -7.870346 z"
         inkscape:connector-curvature="0" />
      <path
         id="path18"
         transform="rotate(90)"
         d="M 88.129654,-112 H 96 v 8 h -7.870346 z"
         inkscape:connector-curvature="0" />
      <path
         id="path20"
         transform="rotate(90)"
         d="M 104.12965,-88 H 112 v 8 h -7.87035 z"
         inkscape:connector-curvature="0" />
      <path
         id="path22"
         transform="rotate(90)"
         d="M 104.12965,-72 H 112 v 8 h -7.87035 z"
         inkscape:connector-curvature="0" />
      <path
         id="path24"
         transform="rotate(90)"
         d="M 104.12965,-56 H 112 v 8 h -7.87035 z"
         inkscape:connector-curvature="0" />
      <path
         id="path26"
         transform="rotate(90)"
         d="M 104.12965,-40 H 112 v 8 h -7.87035 z"
         inkscape:connector-curvature="0" />
      <path
         id="path28"
         transform="rotate(90)"
         d="m 16,-88 h 7.870346 v 8 H 16 Z"
         inkscape:connector-curvature="0" />
      <path
         id="path30"
         transform="rotate(90)"
         d="m 16,-72 h 7.870346 v 8 H 16 Z"
         inkscape:connector-curvature="0" />
      <path
         id="path32"
         transform="rotate(90)"
         d="m 16,-56 h 7.870346 v 8 H 16 Z"
         inkscape:connector-curvature="0" />
      <path
         id="path34"
         transform="rotate(90)"
         d="m 16,-40 h 7.870346 v 8 H 16 Z"
         inkscape:connector-curvature="0" />
      <path
         id="path36"
         transform="rotate(180,67.999995,8)"
         d="M 112.12965,-80 H 120 v 8 h -7.87035 z"
         inkscape:connector-curvature="0" />
      <path
         id="path38"
         transform="rotate(180,67.999995,8)"
         d="M 112.12965,-64 H 120 v 8 h -7.87035 z"
         inkscape:connector-curvature="0" />
      <path
         id="path40"
         transform="rotate(180,67.999995,8)"
         d="M 112.12965,-48 H 120 v 8 h -7.87035 z"
         inkscape:connector-curvature="0" />
      <path
         id="path42"
         transform="rotate(180,67.999995,8)"
         d="M 112.12965,-32 H 120 v 8 h -7.87035 z"
         inkscape:connector-curvature="0" />
      <path
         id="path44"
         transform="rotate(90)"
         d="M 24.129654,-24 H 32 v 8 h -7.870346 z"
         inkscape:connector-curvature="0" />
      <path
         id="path46"
         transform="rotate(90)"
         d="m 24,-112 h 7.870346 v 8 H 24 Z"
         inkscape:connector-curvature="0" />
      <path
         id="path48"
         transform="rotate(90)"
         d="m 40,-112 h 7.870346 v 8 H 40 Z"
         inkscape:connector-curvature="0" />
      <path
         id="path50"
         transform="rotate(90)"
         d="M 16.129654,-104 H 24 v 8 h -7.870346 z"
         inkscape:connector-curvature="0" />
      <path
         id="path52"
         transform="rotate(90)"
         d="M 104.12965,-104 H 112 v 8 h -7.87035 z"
         inkscape:connector-curvature="0" />
    </g>
    <use
       id="use56"
       xlink:href="#b"
       width="128"
       transform="translate(104)"
       height="128"
       x="0"
       y="0" />
    <path
       sodipodi:type="inkscape:offset"
       inkscape:radius="0.73356682"
       inkscape:original="M 5.7558594 4.1875 L 3.9648438 8.4121094 C 3.7009826 9.0373454 3.5091302 9.4291094 3.3886719 9.5839844 C 3.2739496 9.7331232 3.1106735 9.8127465 2.8984375 9.8242188 L 2.8984375 9.9882812 L 4.6015625 9.9882812 L 4.6015625 9.8242188 C 4.211507 9.8242187 4.0175781 9.7058836 4.0175781 9.4707031 C 4.0175781 9.3674531 4.0400495 9.255224 4.0859375 9.1347656 L 4.4824219 8.1289062 L 6.7363281 8.1289062 L 7.0878906 8.9550781 C 7.1968767 9.2017308 7.2519531 9.3935833 7.2519531 9.53125 C 7.2519531 9.6402361 7.2090881 9.7157066 7.1230469 9.7558594 C 7.0370049 9.7960124 6.879835 9.8184828 6.6503906 9.8242188 L 6.6503906 9.9882812 L 8.0996094 9.9882812 L 8.84375 9.9882812 L 10.972656 9.9882812 C 11.368448 9.9882812 11.711241 9.9393112 11.998047 9.8417969 C 12.284852 9.7385469 12.499175 9.6059236 12.642578 9.4453125 C 12.791716 9.2789653 12.897839 9.1136129 12.960938 8.9472656 C 13.024038 8.7809185 13.056641 8.6115365 13.056641 8.4394531 C 13.056641 8.2272171 13.011821 8.037441 12.925781 7.8710938 C 12.839743 7.6990105 12.747905 7.5663871 12.650391 7.4746094 C 12.552876 7.3828315 12.4161 7.2971024 12.238281 7.2167969 C 12.066198 7.1364913 11.945786 7.0875208 11.876953 7.0703125 C 11.813853 7.0531045 11.715915 7.0285576 11.583984 6.9941406 C 11.710179 6.9597236 11.793832 6.9393297 11.833984 6.9335938 C 11.874134 6.9221217 11.968049 6.8813328 12.117188 6.8125 C 12.266326 6.743667 12.37648 6.6722257 12.445312 6.5976562 C 12.519882 6.5173502 12.591323 6.4051215 12.660156 6.2617188 C 12.728986 6.1125799 12.763672 5.9431979 12.763672 5.7539062 C 12.763672 4.7787676 12.012626 4.2910156 10.509766 4.2910156 L 8.0996094 4.2910156 L 8.0996094 4.4550781 C 8.4609844 4.4780221 8.6875191 4.5351751 8.7792969 4.6269531 C 8.8768109 4.7129951 8.9257813 4.9130295 8.9257812 5.2285156 L 8.9257812 9.0488281 C 8.9257812 9.3700503 8.8768112 9.5781441 8.7792969 9.6699219 C 8.7360139 9.7106589 8.6585899 9.74071 8.5644531 9.765625 C 8.5060768 9.7424372 8.4534359 9.7146469 8.4140625 9.6777344 C 8.3222847 9.5916927 8.2079792 9.391658 8.0703125 9.0761719 L 5.9277344 4.1875 L 5.7558594 4.1875 z M 9.9921875 4.609375 L 10.371094 4.609375 C 10.864399 4.609375 11.239922 4.7093924 11.498047 4.9101562 C 11.756172 5.1109202 11.884766 5.4047431 11.884766 5.7890625 C 11.884766 6.127493 11.77449 6.3887101 11.550781 6.5722656 C 11.332809 6.750085 11.022621 6.8378906 10.621094 6.8378906 L 9.8027344 6.8378906 L 9.8027344 4.8671875 C 9.8027344 4.6951042 9.8659934 4.609375 9.9921875 4.609375 z M 5.6171875 5.4101562 L 6.6152344 7.7753906 L 4.6289062 7.7753906 L 5.6171875 5.4101562 z M 9.8027344 7.1816406 C 10.08954 7.1816406 10.320104 7.1877507 10.492188 7.1992188 C 10.664271 7.2049588 10.862229 7.2314548 11.085938 7.2773438 C 11.309646 7.3232327 11.483181 7.3885677 11.609375 7.4746094 C 11.735569 7.5606514 11.841693 7.6871684 11.927734 7.8535156 C 12.019514 8.0141267 12.066406 8.2120851 12.066406 8.4472656 C 12.066406 8.6939184 12.019516 8.9000592 11.927734 9.0664062 C 11.841694 9.2327535 11.717128 9.3592708 11.550781 9.4453125 C 11.384434 9.5256175 11.204917 9.5827708 11.015625 9.6171875 C 10.826333 9.6516045 10.603828 9.6699219 10.345703 9.6699219 C 10.133467 9.6699219 9.990585 9.6454974 9.9160156 9.5996094 C 9.8414462 9.5479845 9.8027344 9.454073 9.8027344 9.3164062 L 9.8027344 7.1816406 z "
       style="font-style:normal;font-variant:normal;font-weight:normal;font-stretch:normal;font-size:68.83332062px;font-family:FreeSerif;-inkscape-font-specification:FreeSerif;letter-spacing:-8px;word-spacing:0;fill:#80b3ff;fill-opacity:1;stroke-width:0.21510418"
       id="path927"
       d="M 5.7558594,3.453125 A 0.73364018,0.73364018 0 0 0 5.0800781,3.9003906 L 3.2890625,8.125 a 0.73364018,0.73364018 0 0 0 0,0.00195 C 3.0415221,8.713516 2.8305851,9.084527 2.828125,9.0957031 A 0.73364018,0.73364018 0 0 0 2.1640625,9.8242188 v 0.1640624 a 0.73364018,0.73364018 0 0 0 0.734375,0.7343748 h 1.703125 A 0.73364018,0.73364018 0 0 0 5.3359375,9.9882812 V 9.8242188 A 0.73364018,0.73364018 0 0 0 4.8710938,9.1425781 L 4.9824219,8.8632812 H 6.2519531 L 6.3710938,9.1464844 A 0.73364018,0.73364018 0 0 0 5.9160156,9.8242188 v 0.1640624 a 0.73364018,0.73364018 0 0 0 0.734375,0.7343748 H 8.0996094 8.84375 10.972656 c 0.4563,0 0.877118,-0.05478 1.261719,-0.185547 a 0.73364018,0.73364018 0 0 0 0.01172,-0.0059 c 0.365583,-0.13161 0.691732,-0.315835 0.943359,-0.5976562 0.19446,-0.2171312 0.354569,-0.456441 0.457031,-0.7265626 0.09195,-0.2423983 0.144532,-0.5028401 0.144532,-0.7675781 0,-0.3134278 -0.06996,-0.6254951 -0.210938,-0.9003906 -0.111549,-0.2224462 -0.241863,-0.424672 -0.427734,-0.5996094 -0.01377,-0.012964 -0.03283,-0.016909 -0.04687,-0.029297 0.07562,-0.1074227 0.159454,-0.2106132 0.216797,-0.3300781 a 0.73364018,0.73364018 0 0 0 0.0039,-0.011719 c 0.118092,-0.2558778 0.171875,-0.5355484 0.171875,-0.8144532 0,-0.6758989 -0.335477,-1.3474485 -0.898438,-1.7128906 -0.562961,-0.365442 -1.259054,-0.484375 -2.089843,-0.484375 H 8.0996094 a 0.73364018,0.73364018 0 0 0 -0.734375,0.734375 v 0.1640625 a 0.73364018,0.73364018 0 0 0 0.6875,0.7324219 c 0.068674,0.00436 0.08785,0.020048 0.1367187,0.033203 1.064e-4,0.00471 0.00195,0.00291 0.00195,0.00781 v 2.296875 L 6.5996094,3.8925781 A 0.73364018,0.73364018 0 0 0 5.9277344,3.453125 Z m 4.7812496,1.9257812 c 0.229677,0.026474 0.450042,0.062923 0.509766,0.109375 0.07753,0.060304 0.103516,0.080097 0.103516,0.3007813 0,0.1775953 -0.01422,0.1738867 -0.06445,0.2148437 -0.04595,0.037168 -0.17144,0.099609 -0.464844,0.099609 h -0.08399 z m 0,2.5625 c 0.109586,0.0074 0.236608,0.02069 0.402344,0.054688 0.162596,0.033353 0.245479,0.076907 0.255859,0.083984 0.0078,0.00533 0.03739,0.028796 0.08008,0.1113281 a 0.73364018,0.73364018 0 0 0 0.01563,0.025391 c 0.01635,0.02862 0.04101,0.092797 0.04101,0.2304687 0,0.1536829 -0.02788,0.2311927 -0.04687,0.265625 a 0.73364018,0.73364018 0 0 0 -0.0098,0.015625 c -0.02233,0.043167 -0.02547,0.044359 -0.06055,0.0625 -0.09896,0.046015 -0.20766,0.081258 -0.330078,0.1035156 -0.08697,0.015812 -0.22343,0.020511 -0.347657,0.027344 z"
       transform="matrix(8,0,0,8,0,-4)" />
    <g
       aria-label="AB"
       style="font-size:68.83332062px;font-family:sans-serif;letter-spacing:0;word-spacing:0;stroke-width:1.72083342"
       id="text62">
      <path
         d="m 70.752807,74.591703 v 1.307833 H 53.20031 v -1.307833 q 2.753333,-0.06883 3.785833,-0.550667 1.0325,-0.481833 1.0325,-1.789666 0,-1.652 -1.307833,-4.611832 L 53.888644,61.031539 H 35.854313 l -3.166332,8.053498 q -0.550667,1.4455 -0.550667,2.6845 0,2.822166 4.680666,2.822166 v 1.307833 H 23.188983 v -1.307833 q 2.546832,-0.137667 3.923499,-1.927333 1.4455,-1.8585 4.611832,-9.361332 l 14.317331,-33.79716 h 1.376666 l 17.139497,39.097326 q 1.652,3.785833 2.753333,4.818333 1.101333,1.032499 3.441666,1.170166 z M 37.02448,58.209373 H 52.924977 L 44.940312,39.28021 Z"
         style="font-style:normal;font-variant:normal;font-weight:normal;font-stretch:normal;font-family:FreeSerif;-inkscape-font-specification:FreeSerif;letter-spacing:-8px;stroke-width:1.72083342"
         id="path1115" />
      <path
         d="m 104.44537,63.509538 q 0,2.065 -0.75717,4.061166 -0.75717,1.996167 -2.54683,3.992333 -1.720836,1.927333 -5.162502,3.166333 -3.441666,1.170166 -8.191166,1.170166 H 64.797373 v -1.307833 q 4.267666,-0.137667 5.437833,-1.239 1.170166,-1.101333 1.170166,-4.955999 V 37.83471 q 0,-3.785833 -1.170166,-4.818333 -1.101333,-1.101333 -5.437833,-1.376666 v -1.307833 h 19.27333 q 18.034327,0 18.034327,11.701664 0,2.2715 -0.826,4.061166 -0.826,1.720833 -1.72083,2.6845 -0.826,0.894833 -2.615666,1.720833 -1.789666,0.826 -2.2715,0.963666 -0.481833,0.06883 -1.996166,0.481834 1.583167,0.412999 2.340333,0.619499 0.826,0.2065 2.891,1.170167 2.133829,0.963666 3.303999,2.065 1.17017,1.101333 2.20267,3.166332 1.0325,1.996167 1.0325,4.542999 z m -21.6825,9.843165 q 3.097499,0 5.368999,-0.413 2.2715,-0.413 4.267666,-1.376666 1.996166,-1.0325 3.028666,-3.028666 1.101333,-1.996166 1.101333,-4.955999 0,-2.822166 -1.101333,-4.749499 -1.0325,-1.996167 -2.546833,-3.028666 -1.514333,-1.0325 -4.198832,-1.583167 -2.6845,-0.550666 -4.7495,-0.6195 -2.064999,-0.137666 -5.506665,-0.137666 v 17.070663 q 0,1.652 0.894833,2.2715 0.894833,0.550666 3.441666,0.550666 z M 78.426371,50.706541 h 6.539165 q 4.818333,0 7.433999,-2.133833 2.684499,-2.202666 2.684499,-6.263832 0,-4.611833 -3.097499,-7.020999 -3.097499,-2.409166 -9.017165,-2.409166 h -3.028666 q -1.514333,0 -1.514333,2.064999 z"
         style="font-style:normal;font-variant:normal;font-weight:normal;font-stretch:normal;font-family:FreeSerif;-inkscape-font-specification:FreeSerif;letter-spacing:-8px;stroke-width:1.72083342"
         id="path1117" />
    </g>
  </g>
</svg>
